X:97
T:The foxhunter's reel
R:Reel
B:Ceol Rince 2 n205
S:My arrangement from various sources
S:including my fevered imagination...
Z:Transcription, arrangement, chords:Mike Long
M:C|
L:1/8
K:A
"A"e2cA e2cA|"A"e2cA "D"BAFA|"A"e2cA e2cA|"E"BdcA "D"BAFA:|
|:"A"~E2Ec cBAF|"A"EAcA "D"BAFA|"A"~E2Ec cBcA|"E"BdcA "D"BAFA:|
|:"A"afec A2ce|"A"aece "E"fB~B2|"A"afec ABcA|"E"Bcde fB~B2:|
|:"A"eaag ~a2az|"A"ea~a2 "D"(3(fga) ec|"A"eaag ~a3e|"D"(3(fga) ec "E"cBBc:|
|:"A"A2cA eAcA|"A"AccB "E"cdcB|"A"A2cA eAce|"D"(3(fga) ec "E"cBBc:|
